X: 32688
T: Policeman's Holiday, The
R: jig
M: 6/8
K: Gmajor
g||dBG DGc|ABd dB/c/d|e2c EAc|g3 gfe|
dBG DGc|B2d dcB|A^ce ~a3|1 fd^c d2g:|2 fd^c def||
~g3 ~f3|e2e dBA|GB/c/d g2e|dBA GB/c/d|
~g3 ~f3|~e3 d^cB|A^ce ~a3|fd^c d3|
gab fga|efg dBA|GB/c/d gB/c/d|gdB GB/c/d|
~g3 ~f3|~e3 d^cB|A^ce ~a3|fd^c d3|
Bc^c dbf|agd f=fe|dbf agd|fed bge|
dbf agd|B2g gdB|A^ce ~a3|1 fd^c d2z:|2 fd^c d2g||

